X:31
T:Cabin Hunter (reel), The 
B:CRE1.190 (Biadanai)
F:file ID: cre.1/031cabin_h
S:Ned Stapleton
N:The audio file has a one-measure coda.
M:C
L:1/8
Q:180
R:reel
K:Em
EF|(3GFE FD E3F|GEE2 dAFD|(3GFE FD E3F|DFAF DFAF|
(3GFE FD E3F|GEE2 dAFD|(3GFE FD E3F|DFAF DFAF||
Beed efed|Bdef gfed|Bee^c dedB|AFF2 DFAF|
Beed efed|Bdef g2fg|egg2 efge|d^cdB ADFA||

%%%

